X: 23
T: My Dearie O With Variations
T: Ain kind dearie
T: An oidhche a bha bhanais ann
T: Kind deary
T: Lea rig
T: Lea rigges
R: air
M: C|
L: 1/16
N: This is actually all "variations"; you'll have to find the basic tune elsewhere.
Z: 2010 John Chambers <jc:trillian.mit.edu>
B: Anonymous manuscript tune book (1800-1840) p.41-42
F: http://www.asaplive.com/archive/browse_by_collection.asp
N: The asaplive.com web site is complex, and links to its files don't usually work.
K: D
f>e |\
{de}f2A2A2B2 d3ed3f | {def}e3f gfed {de}f2B2B2 f>e | {de}f2A2A2B2 d3ed2 d'a |
b3a ac'd'a f2d2d2 f>e | {de}f2A2A2B2 d3e dfaf | egfa gfed {de}f2B2B2 f>e |
f2A2A2B2 d3e dad'c' | Tb3a gfea f2d2d2 a2 | Tb>abc' d'2f2 Tg>fga b2d2 |
Te>def Tgfed {de}f2B2B2 f>e | {de}f2A2A2B2 dad'c' | b3g bc'd'a f2d2d2 |]
fe | dAFD dAfA eAfA gfed | {de}g2B2B2 fe dAFD adbd | d'c'/b/ag f>ae>a f2d2d2 ab/c'/ |
.d'(afa) .b(afa) .d'(afa) bafa | d'c'ba gfTed {de}f2B2B2 f>e | .d(AFA) .B(AFA) .d(AFA) .B(AGA |
d'c'/b/ag f>gf>g f2d2d2 |] f>e | d2f>d A2d>A F2A>F D2f2 | Tedef gfed {de}f2B2B2 f>e |
d2((3afd) A2((3fdB) F2((3dAF) D2d'c' | b>a bc'd'a f2d2d2 a2 | b2d'b a2d'a g2e'b f2d'f |
e>gf>a g>ef>d {de}f2B2B2 f>e | d2((3bfd) A2((3fdB) F2((3dAF) D2d'c' | b>a bc'd'a f2d2d2 |]


%%sep 5 1 500

